X:1
T:Title
%%score [ 1 2 3 4 ]
L:1/8
Q:1/4=64
M:2/4
K:F
V:1 treble nm="Soprano" snm="S"
V:2 treble nm="Alto" snm="A"
V:3 treble-8 nm="Tenor" snm="T"
V:4 bass nm="Bass" snm="B"
V:1
"^Thomas Jarman\n(1776-1861)""^Glorification""^While shepherds watched" F2 FG | (A/G/A/B/ c)A | %2
w: While she- pherds|watch'd * * * * their|
w: Fear not, said|he, * * * * (for|
w: To you, in|Da\- * * * * vid's|
w: The hea- v'nly|Babe * * * * you|
 d2 e2 | f2 z A | Bc de | (fe/d/ e)c | (Af e)d | c2 =B2 | c3 c | A2 c2 | f3 e | d2 (d3/2e/4f/4) | %12
w: flocks by|night, All|ea- ted on the|ground, * * * all|sea\- * * ted|on the|ground, The|an- gel|of the|Lord came * *|
w: migh- ty|dread Had|seized their trou- bled|mind, * * * had|seized * * their|trou- bled|mind), Glad|ti- dings|of great|joy I * *|
w: town this|day Is|born of Da- vid's|line, * * * is|born * * of|Da- vid's|line A|Sa- viour|who is|Christ the * *|
w: there shall|find To|hu- man view dis-|played, * * * to|hu\- * * man|view dis-|played, All|mean- ly|wrapped in|swa- thing * *|
 e2 z c | Ad cB | A2 z f | ef ed | c3 e | f2 (A/B/c/d/) | A2 G2 | F4 |] %20
w: down And|glo- ry shone a-|round, and|glo- ry shone a-|round, and|glo- ry * * *|shone a-|round.|
w: bring To|you and all man-|kind, to|you and all man-|kind, to|you and * * *|all man-|kind.|
w: Lord, And|this shall be the|sign, and|this shall be the|sign, and|this shall * * *|be the|sign.|
w: bands, And|in a man- ger|laid, and|in a man- ger|laid, and|in a * * *|man- ger|laid.|
V:2
 C2 CE | (F/E/F/G/ A)F | F2 B2 | A2 z C | FF FB | (A G2) G | (A G2) A | G2 F2 | E3 A | F2 A2 | %10
w: While she- pherds|watch'd * * * * their|flocks by|night, All|ea- ted on the|ground, * all|sea\- * ted|on the|ground, The|an- gel|
w: Fear not, said|he, * * * * (for|migh- ty|dread Had|seized their trou- bled|mind, * had|seized * their|trou- bled|mind), Glad|ti- dings|
w: To you, in|Da\- * * * * vid's|town this|day Is|born of Da- vid's|line, * is|born * of|Da- vid's|line A|Sa- viour|
w: The hea- v'nly|Babe * * * * you|there shall|find To|hu- man view dis-|played, * to|hu\- * man|view dis-|played, All|mean- ly|
 A3 G | A2 G2 | G2 z A | FB AG | F2 z A | GA GF | (E2 G)G | (AF) F2 | F2 E2 | F4 |] %20
w: of the|Lord came|down And|glo- ry shone a-|round, and|glo- ry shone a-|round, * and|glo\- * ry|shone a-|round.|
w: of great|joy I|bring To|you and all man-|kind, to|you and all man-|kind, * to|you * and|all man-|kind.|
w: who is|Christ the|Lord, And|this shall be the|sign, and|this shall be the|sign, * and|this * shall|be the|sign.|
w: wrapped in|swa- thing|bands, And|in a man- ger|laid, and|in a man- ger|laid, * and|in * a|man- ger|laid.|
V:3
 A2 Ac | (c f2) c | d2 c2 | c2 z c | fA dc | (cd c)c | (c=B c)f | e2 d2 | c3 c | c2 f2 | c3 c | %11
w: While she- pherds|watch'd * their|flocks by|night, All|ea- ted on the|ground, * * all|sea\- * * ted|on the|ground, The|an- gel|of the|
w: Fear not, said|he, * (for|migh- ty|dread Had|seized their trou- bled|mind, * * had|seized * * their|trou- bled|mind), Glad|ti- dings|of great|
w: To you, in|Da\- * vid's|town this|day Is|born of Da- vid's|line, * * is|born * * of|Da- vid's|line A|Sa- viour|who is|
w: The hea- v'nly|Babe * you|there shall|find To|hu- man view dis-|played, * * to|hu\- * * man|view dis-|played, All|mean- ly|wrapped in|
 c2 (=B3/2c/4d/4) | c2 z2 | z2 z c | cc Bc | c2 z =B | c4- | c2 (cf) | c2 B2 | A4 |] %20
w: Lord came * *|down|And|glo- ry shone a-|round, and|glo\-|* ry *|shone a-|round.|
w: joy I * *|bring|To|you and all man-|kind, to|you|* and *|all man-|kind.|
w: Christ the * *|Lord,|And|this shall be the|sign, and|this|* shall *|be the|sign.|
w: swa- thing * *|bands,|And|in a man- ger|laid, and|in|* a *|man- ger|laid.|
V:4
 F,2 F,C, | F,3 F, | B,2 G,2 | (F,C A,)F, | D,F, B,G, | (A,=B, C)E, | (F,D, E,)F, | G,2 G,2 | %8
w: While she- pherds|watch'd their|flocks by|night, * * All|ea- ted on the|ground, * * all|sea\- * * ted|on the|
w: Fear not, said|he, (for|migh- ty|dread * * Had|seized their trou- bled|mind, * * had|seized * * their|trou- bled|
w: To you, in|Da- vid's|town this|day * * Is|born of Da- vid's|line, * * is|born * * of|Da- vid's|
w: The hea- v'nly|Babe you|there shall|find * * To|hu- man view dis-|played, * * to|hu\- * * man|view dis-|
 C,3 F, | F,2 F,2 | (F,/G,/A,/B,/ C)C, | F,2 G,2 | C,2 z2 | z2 z C, | F,A, G,F, | %15
w: ground, The|an- gel|of * * * * the|Lord came|down|And|glo- ry shone a-|
w: mind), Glad|ti- dings|of * * * * great|joy I|bring|To|you and all man-|
w: line A|Sa- viour|who * * * * is|Christ the|Lord,|And|this shall be the|
w: played, All|mean- ly|wrapped * * * * in|swa- thing|bands,|And|in a man- ger|
"^Thus spake the seraph, and forthwith\nAppeared a shining throng\nOf angels praising God, who thus\nAddressed their joyful song:""^All glory be to God on high,\nAnd to the earth be peace;\nGoodwill henceforth from heav'n to men\nBegin and never cease!" C2 z G, | %16
w: round, and|
w: kind, to|
w: sign, and|
w: laid, and|
 CG, E,C, | F,A, C (A,/B,/) | C2 C,2 | F,4 |] %20
w: glo- ry shone a-|round, and glo- ry *|shone a-|round.|
w: you and all man-|kind, to you and *|all man-|kind.|
w: this shall be the|sign, and this shall *|be the|sign.|
w: in a man- ger|laid, and in a *|man- ger|laid.|

